X:106
T:Pollonesse in D-måll ur Trästadsamlingen
T:(SmM I:106)
R:Polska
R:Slängpolska
O:Trästad, Blackstad socken, Småland
B:Trästadsamlingen
B:Småländsk Musiktradition
N:ca 1750
M:3/4
L:1/16
K:Dm
DFAc f4 gfed|cdef g4 agfe|d2e2 f2g2 a4|efed cdcB ABAG|
DFAc f4 gfed|cdef g4 agfe|d2e2 f2g2 a4|efef d8:|
|:DFAc f2a2 a2a2|bgfg g8|gfef d2e2 f2d2|dcAc A8|
d2f2 a4 bgfg|cdef g4 agfe|d2e2 f2g2 a4|efef d8:|

